images/icons/v2/error-outline-24.svg

<svg height="24" viewBox="0 0 24 24" width="24" xmlns="http://www.w3.org/2000/svg"><path d="m10.75 6h2.5l-.5 7.5h-1.5zm1.25-3.5a9.5 9.5 0 1 0 9.5 9.5 9.511 9.511 0 0 0 -9.5-9.5m0-1.5a11 11 0 1 1 -11 11 11 11 0 0 1 11-11zm1.5 15.5a1.5 1.5 0 1 0 -1.5 1.5 1.5 1.5 0 0 0 1.5-1.5z"/></svg>

<svg xmlns="http://www.w3.org/2000/svg" width="24" height="24" viewBox="0 0 24 24"><title>error-outline-24</title><path d="M10.75,6h2.5l-.5,7.5h-1.5ZM12,2.5A9.5,9.5,0,1,0,21.5,12,9.511,9.511,0,0,0,12,2.5M12,1A11,11,0,1,1,1,12,11,11,0,0,1,12,1Zm1.5,15.5A1.5,1.5,0,1,0,12,18,1.5,1.5,0,0,0,13.5,16.5Z"/></svg>
